X:1
T:Opus Sinister in G minor
T:Opus Sinister in G minor
T:James Banks
T:(for Percussion, Bells/Glockenspiel) 
T:by Mutopia-2006/02/24-668 - Public Domain
T:by Mutopia-2006/02/24-668 - Public Domain
T:by Mutopia-2006/02/24-668 - Public Domain
T:by Mutopia-2006/02/24-668 - Public Domain
C:James Banks
Z:by Mutopia-2006/02/24-668 - Public Domain
%%score ( 1 2 ) ( 3 4 )
L:1/8
Q:1/4=150
M:3/4
K:Bb
V:1 treble nm="Chimes"
V:2 treble 
V:3 treble transpose=24 nm="Glockenspiel" snm="Glock."
V:4 treble transpose=24 
V:1
 GDB,DGD | GDB,DGD | ^FDB,DFD | ^FDB,DFD | FDG,DFD | FA,F=B,FC | =ECG,CEC | =ECG,CEC | ECG,CEC | %9
 EBDcCe | x2 d2 ^f2 | gdgdgd | gdgdgd | beaege | beaege | bdadgd | bdadgB | acgc^fA | acgc^fA | %19
 g2 fedc | B2 cdeg | fdAdfd | fDeDdD |[M:4/4] e2 a2 x2 z g |[M:3/4] b2 b2 b2 | c'2 c'2 a2 | %26
 b2 a2 g2 | a2 g2 ^f2 | ba g2 x2 | f2 e2 d2 | e4 d2 | cAcAcA | BGBGBG | A^FAFAF | GDGDGD | GDGDGD | %36
 =E/G,/C/G,/ E/G,/C/G,/ EC | =E/G,/C/G,/ ECEC | GDGDGD | G^GAB=Bc | cAcAcA | ^cAdAeA | gdgdgd | %43
 ^fdfdfd | gdgdgd | adadad | gcgcgc | fBfBfB | eAeAeA | dcBcdB | cBABcA | B2 A2 G2 | A2 G2 F2 | %53
 F2 F2 F2 | E G,A,B,A,G, | E2 D2 C2 | C2 D2 E2 | C2 A,2 ^F2 | G,2 G,G,G,G, | G,G,/G,/ G,G,G,G, | %60
 G,G,/G,/ G,G,G,G, | G,G,/G,/ G,G,G,G, |: G, D G,G,G,G, | A,G,/G,/ G,G, G,G, | G, EC G,G,G, | %65
 G,G,/G,/ G,G, G,G, | G, D G,G,G,G, | G,G,/G,/ G,G,G,G, | G, EB, G,G,G, | G,G,/G,/ G,G, G,G, :| %70
 G,G,G,G,G,G, | G,G,/G,/ G,G,G,G, | G,G,G,G,G,G, | G,G,/G,/G,G,G,G, | G, CA, G,G,G, | %75
 G,G,/G,/G,G,G,G, | G, CA, G,G,G, | G,G,/G,/G,G,G,G, | G, DB, G,G,G, | G,G,/G,/ G,G,G,G, | %80
 G, CA, G,G,G, | G,G,/G,/ G,G,G,G, | G, C_A, G,G,G, | G,G,/G,/ G,G,G,G, | G,G,G,G,G,G, | %85
 G,G,/G,/ G,G,G,G, | G,D/G,/G G,G,G, | G,G,/G,/ G,G,G,G, | G,D/G,/G G,G,G, | G,G,/G,/ G,G,G,G, | %90
 G,D/G,/E G,G,G, | G,G,/G,/ G,G,G,G, | G,D/G,/B, G,G,G, | G,G,/G,/ G,G,G,G, | G,D/G,/G G,G,G, | %95
 G,G,/G,/ G,G,G,G, | G,D/G,/A G,G,G, | G,G,/G,/ G,G,G,G, | ^FG,/G,/G, G,G,G, | G,G,/G,/ G,G,G,G, | %100
 ^F6 | d6 | e6 | B6 | c6 | d6 | ^f6 | gd/B/G DG,G, | G,G,/G,/ G,G,G,G, | gd/A/^F DG,G, | %110
 G,G,/G,/ G,G,G,G, | eB/G/E CG,G, | G,G,/G,/ G,G,G,G, | dB/A/G EDC | G,G,/G,/ G,G,G,G, | %115
 B/A/G/^F/E/D/ EG,G, | G,G,/G,/ G,G,G,G, | B/G/F/E/D/C/ B,G,G, | G,G,/G,/ G,G,G,G, | %119
 A/^F/D/A,/D/F/ A/F/D/A,/D/F/ | ^FE/D/ B,A,A,A, |"^Decel."[Q:1/4=130] G,G,/G,/ G,G,G,G, | %122
[Q:1/4=110] G,G,/G,/ G,G,G,G, || d/B,/c/A,/B/G,/ d/B,/c/A,/B/G,/ | %124
 d/B,/c/A,/B/G,/ d/B,/c/A,/B/G,/ | c/C/B/B,/A/A,/ c/C/B/B,/A/A,/ | c/C/B/B,/A/A,/ c/C/B/B,/A/A,/ | %127
 B/D/A/C/G/B,/ B/D/A/C/G/B,/ | B/D/A/C/G/B,/ B/D/A/C/G/B,/ | A/C/G/B,/F/A,/ A/C/G/B,/F/A,/ | %130
 A/C/G/B,/F/A,/ A/C/G/B,/F/A,/ | G/E/F/D/E/C/ G/B,/F/A,/E/G,/ | F/G,/E/G,/D/G,/ F/G,/E/G,/D/G,/ | %133
 E/G,/C/G,/A/G,/ B/G,/^F/G,/G/G,/ | B,/G,/E/G,/C/G,/ D/G,/A,/G,/B,/G,/ | %135
 G,/G,/G,/G,/ G,/G,/G,/G,/ G,/G,/G,/G,/ | %136
"^Decel."[Q:1/4=90] G,/G,/G,/G,/ G,/G,/G,/G,/ G,/G,/G,/G,/ | G,G,G,G,G,G, | %138
[Q:1/4=80] G,G,/G,/ G,G,G,G, || GDB,DGD | GDB,DGD | ^FDB,DFD | ^FDB,DFD | FDG,DFD | FA,F=B,FC | %145
 =ECG,CEC | =ECG,CEC | ECG,CEC | EBDcCe | x2 d2 ^f2 | gdgdgd | gdgdgd | beaege | beaege | bdadgd | %155
 bdadgB | acgc^fA | acgc^fA | g2 fedc | B2 cdeg | fdAdfd | fDeDdD |[M:4/4] e2 a2 x2 z a | %163
[M:3/4] b2 b2 b2 | c'2 c'2 a2 | b2 a2 g2 | a2 g2 ^f2 | ba g2 e2 | f2 e2 d2 | e4 d2 | cAcAcA | %171
 BGBGBG | A^FAFAF | GDGDGD | GDGDGD | =E/G,/C/G,/ E/G,/C/G,/ EC | =E/G,/C/G,/ ECEC | GDGDGD | %178
 G_A=AB=Bc | cAcAcA | ^cAdAeA | gdgdgd | ^fdfdfd | gdgdgd | adadad | gcgcgc | fBfBfB | eAeAeA | %188
 dcBcdB | cBABcA | d2 A2 G2 | A2 G2 F2 | F2 F2 F2 | E G,A,B,A,G, | E2 D2 C2 | C2 D2 E2 | %196
"^rit." C2 A,2 ^F2 | G2 |] %198
V:2
 x6 | x6 | x6 | x6 | x6 | x6 | x6 | x6 | x6 | x6 | B,A,G, z3 | G2 x4 | x6 | x6 | x6 | x6 | x6 | %17
 x6 | x6 | x6 | x6 | x6 | x6 |[M:4/4] z C2 CDEDC |[M:3/4] B,2 z2 G2 | ^F2 G2 A2 | B,CDE G2 | %27
 A,D^FGAF | G2 B2 e2 | z CDEDC | D2 G2 B2 | ^F2 F2 F2 | D2 D2 D2 | D2 D2 D2 | =B,2 B,2 B,2 | %35
 =B,2 B,2 B,2 | z4 G,2 | x2 G,2 G,2 | =B,2 B,2 B,2 | =B,2 x4 | ^F2 F2 F2 | ^F2 F2 F2 | B2 B2 B2 | %43
 A2 A2 A2 | G2 G2 G2 | F2 F2 F2 | E2 E2 E2 | D2 D2 D2 | C2 C2 C2 | D2 G2 A2 | B2 ^F2 E2 | %51
 DG,A,B,DE | FDB,A,B,D | FEDCB,A, | C x5 | G,G,G,G,G,A, | G,A,G,A,B,G, | A,G,A,B,CD | G2 x4 | x6 | %60
 x6 | x6 |: x6 | x6 | x6 | x6 | x6 | x6 | x6 | x6 :| x6 | x6 | x6 | x6 | x6 | x6 | x6 | x6 | x6 | %79
 x6 | x6 | x6 | x6 | x6 | x6 | x6 | x6 | x6 | x6 | x6 | x6 | x6 | x6 | x6 | x6 | x6 | x6 | x6 | %98
 x6 | x6 | x6 | G,G,/G,/ G,G,G,G, | G,G,/G,/ G,G,G,G, | G,G,/G,/ G,G,G,G, | A,G,/G,/ G,G,G,G, | %105
 B,G,/G,/ G,G,G,G, | CG,/G,/ G,G,G,G, | D2 x4 | x6 | D2 x4 | x6 | C2 x4 | x6 | x6 | x6 | x6 | x6 | %117
 x6 | x6 | x6 | x6 | x6 | x6 || x6 | x6 | x6 | x6 | x6 | x6 | x6 | x6 | x6 | x6 | x6 | x6 | x6 | %136
 x6 | x6 | x6 || x6 | x6 | x6 | x6 | x6 | x6 | x6 | x6 | x6 | x6 | B,A,G, z3 | G2 x4 | x6 | x6 | %153
 x6 | x6 | x6 | x6 | x6 | x6 | x6 | x6 | x6 |[M:4/4] z C2 CDEDC |[M:3/4] B,2 z2 G2 | ^F2 G2 A2 | %165
 B,CDE G2 | A,D^FGAF | G2 B2 x2 | z CDEDC | D2 G2 B2 | ^F2 F2 F2 | D2 D2 D2 | D2 D2 D2 | %173
 =B,2 B,2 B,2 | =B,2 B,2 B,2 | x4 G,2 | x2 G,2 G,2 | =B,2 B,2 B,2 | =B,2 x4 | ^F2 F2 F2 | %180
 ^F2 F2 F2 | B2 B2 B2 | A2 A2 A2 | G2 G2 G2 | F2 F2 F2 | E2 E2 E2 | D2 D2 D2 | C2 C2 C2 | %188
 D2 G2 A2 | B2 ^F2 E2 | DG,A,B,DE | FDB,A,B,D | FEDCB,A, | C x5 | G,G,G,G,G,G, | B,A,G,A,B,G, | %196
 A,G,A,B,CD | G,2 |] %198
V:3
 G D B, D G D | G D B, D G D | ^F D B, D F D | ^F D B, D F D | F D G, D F D | F A, F =B, F C | %6
 =E C G, C E C | =E C G, C E C | E C G, C E C | E G D G C G | x2 G2 G2 | G G G G G G | GGGGGG | %13
 G G G G G G | G G G G G G | G G G G G G | G G G G G G | G G G G G G | G G G G G G | G2 G G G G | %20
 G2 G G G G | G G G G G G | G D G D G D |[M:4/4] G2 G2 x2 z G |[M:3/4] G2 G2 G2 | G2 G2 G2 | %26
 G2 G2 G2 | G2 G2 G2 | G G G2 x2 | G2 G2 G2 | G4 G2 | G G G G G G | G G G G G G | G ^F G F G F | %34
 G D G D G D | G D G D G D | =E/ G,/ C/ G,/ E/ G,/ C/ G,/ E C | =E/ G,/ C/ G,/ E C E C | %38
 G D G D G D | G G G G G G | G G G G G G | G G G G G G | G G G G G G | G G G G G G | G G G G G G | %45
 G G G G G G | G G G G G G | G G G G G G | G G G G G G | G G G G G G | G G G G G G | G2 G2 G2 | %52
 G2 G2 F2 | F2 F2 F2 | E G, A, B, A, G, | E2 D2 C2 | C2 D2 E2 | C2 A,2 ^F2 | G,2 G,G,G,G, | %59
 G,G,/G,/ G,G,G,G, | G,G,/G,/ G,G,G,G, | G,G,/G,/ G,G,G,G, |: G, D G,G,G,G, | A,G,/G,/ G,G, G,G, | %64
 G, E C G,G,G, | G,G,/G,/ G,G, G,G, | G, D G,G,G,G, | G,G,/G,/ G,G,G,G, | G, E B, G, G, G, | %69
 G,G,/G,/ G,G, G,G, :| G,G,G,G,G,G, | G,G,/G,/ G,G,G,G, | G,G,G,G,G,G, | G,G,/G,/G,G,G,G, | %74
 G, C A, G,G,G, | G,G,/G,/G,G,G,G, | G, C A, G,G,G, | G,G,/G,/G,G,G,G, | G, D B, G,G,G, | %79
 G,G,/G,/ G,G,G,G, | G, C A, G,G,G, | G,G,/G,/ G,G,G,G, | G, C ^G, =G,G,G, | G,G,/G,/ G,G,G,G, | %84
 G,G,G,G,G,G, | G,G,/G,/ G,G,G,G, | G, D/ G,/ G G, G, G, | G,G,/G,/ G,G,G,G, | %88
 G, D/ G,/ G G, G, G, | G,G,/G,/ G,G,G,G, | G, D/ G,/ E G, G, G, | G,G,/G,/ G,G,G,G, | %92
 G, D/ G,/ B, G, G, G, | G,G,/G,/ G,G,G,G, | G, D/ G,/ G G, G, G, | G,G,/G,/ G,G,G,G, | %96
 G,D/G,/G G,G,G, | G,G,/G,/ G,G,G,G, | ^F G,/ G,/ G, G, G, G, | G,G,/G,/ G,G,G,G, | ^F6 | G6 | G6 | %103
 G6 | G6 | G6 | G6 | G G/ G/ G D G, G, | G,G,/G,/ G,G,G,G, | G G/ G/ ^F D G, G, | %110
 G,G,/G,/ G,G,G,G, | G G/ G/ E C G, G, | G,G,/G,/ G,G,G,G, | G G/ G/ G E D C | G,G,/G,/ G,G,G,G, | %115
 G/ G/ G/ ^F/ E/ D/ E G, G, | G,G,/G,/ G,G,G,G, | G/ G/ F/ E/ D/ C/ B, G, G, | G,G,/G,/ G,G,G,G, | %119
 G/ ^F/ D/ A,/ D/ F/ G/ F/ D/ A,/ D/ F/ | ^F E/ D/ B, A, A, A, |"^Decel." G,G,/G,/ G,G,G,G, | %122
 G,G,/G,/ G,G,G,G, || G/ B,/ G/ A,/ G/ G,/ G/ B,/ G/ A,/ G/ G,/ | %124
 G/ B,/ G/ A,/ G/ G,/ G/ B,/ G/ A,/ G/ G,/ | G/ C/ G/ B,/ G/ A,/ G/ C/ G/ B,/ G/ A,/ | %126
 G/ C/ G/ B,/ G/ A,/ G/ C/ G/ B,/ G/ A,/ | G/ D/ G/ C/ G/ B,/ G/ D/ G/ C/ G/ B,/ | %128
 G/ D/ G/ C/ G/ B,/ G/ D/ G/ C/ G/ B,/ | G/ C/ G/ B,/ F/ A,/ G/ C/ G/ B,/ F/ A,/ | %130
 G/ C/ G/ B,/ F/ A,/ G/ C/ G/ B,/ F/ A,/ | G/ E/ F/ D/ E/ C/ G/ B,/ F/ A,/ E/ G,/ | %132
 F/ G,/ E/ G,/ D/ G,/ F/ G,/ E/ G,/ D/ G,/ | E/ G,/ C/ G,/ G/ G,/ G/ G,/ ^F/ G,/ G/ G,/ | %134
 B,/ G,/ E/ G,/ C/ G,/ D/ G,/ A,/ G,/ B,/ G,/ | G,/ G,/ G,/ G,/ G,/ G,/ G,/ G,/ G,/ G,/ G,/ G,/ | %136
"^Decel." G,/ G,/ G,/ G,/ G,/ G,/ G,/ G,/ G,/ G,/ G,/ G,/ | G,G,G,G,G,G, | G,G,/G,/ G,G,G,G, || %139
 G D B, D G D | G D B, D G D | ^F D B, D F D | ^F D B, D F D | F D G, D F D | F A, F =B, F C | %145
 =E C G, C E C | =E C G, C E C | E C G, C E C | E G D G C G | x2 G2 G2 | G G G G G G | %151
 G G G G G G | G G G G G G | G G G G G G | G G G G G G | G G G G G G | G G G G G G | G G G G G G | %158
 G2 G G G G | G2 G G G G | G G G G G G | G D G D G D |[M:4/4] G2 G2 x2 z G |[M:3/4] G2 G2 G2 | %164
 G2 G2 G2 | G2 G2 G2 | G2 G2 G2 | G G G2 G2 | G2 G2 G2 | G4 G2 | G G G G G G | G G G G G G | %172
 G ^F G F G F | G D G D G D | G D G D G D | =E/ G,/ C/ G,/ E/ G,/ C/ G,/ E C | %176
 =E/ G,/ C/ G,/ E C E C | G D G D G D | G G G G G G | G G G G G G | G G G G G G | G G G G G G | %182
 G G G G G G | G G G G G G | G G G G G G | G G G G G G | G G G G G G | G G G G G G | G G G G G G | %189
 G G G G G G | G2 G2 G2 | G2 G2 F2 | F2 F2 F2 | E G,A,B,A,G, | E2 D2 C2 | C2 D2 E2 | %196
"^rit." C2 A,2 ^F2 | G2 |] %198
V:4
 x6 | x6 | x6 | x6 | x6 | x6 | x6 | x6 | x6 | x6 | B, A, G, z3 | G2 x4 | x6 | x6 | x6 | x6 | x6 | %17
 x6 | x6 | x6 | x6 | x6 | x6 |[M:4/4] z C2 C D E D C |[M:3/4] B,2 z2 G2 | ^F2 G2 G2 | B, C D E G2 | %27
 A, D ^F G G F | G2 G2 G2 | z C D E D C | D2 G2 G2 | ^F2 F2 F2 | D2 D2 D2 | D2 D2 D2 | %34
 =B,2 B,2 B,2 | =B,2 B,2 B,2 | z4 G,2 | x2 G,2 G,2 | =B,2 B,2 B,2 | =B,2 x4 | ^F2 F2 F2 | %41
 ^F2 F2 F2 | G2 G2 G2 | G2 G2 G2 | G2 G2 G2 | F2 F2 F2 | E2 E2 E2 | D2 D2 D2 | C2 C2 C2 | %49
 D2 G2 G2 | G2 ^F2 E2 | D G, A, B, D E | F D B, A, B, D | F E D C B, A, | C x5 | %55
 G, G, G, G, G, A, | G, A, G, A, B, G, | A, G, A, B, C D | G2 x4 | x6 | x6 | x6 |: x6 | x6 | x6 | %65
 x6 | x6 | x6 | x6 | x6 :| x6 | x6 | x6 | x6 | x6 | x6 | x6 | x6 | x6 | x6 | x6 | x6 | x6 | x6 | %84
 x6 | x6 | x6 | x6 | x6 | x6 | x6 | x6 | x6 | x6 | x6 | x6 | x6 | x6 | x6 | x6 | x6 | %101
 G,G,/G,/ G,G,G,G, | G,G,/G,/ G,G,G,G, | G,G,/G,/ G,G,G,G, | A,G,/G,/ G,G,G,G, | %105
 B,G,/G,/ G,G,G,G, | C G,/ G,/ G, G, G, G, | D2 x4 | x6 | D2 x4 | x6 | C2 x4 | x6 | x6 | x6 | x6 | %116
 x6 | x6 | x6 | x6 | x6 | x6 | x6 || x6 | x6 | x6 | x6 | x6 | x6 | x6 | x6 | x6 | x6 | x6 | x6 | %135
 x6 | x6 | x6 | x6 || x6 | x6 | x6 | x6 | x6 | x6 | x6 | x6 | x6 | x6 | B, A, G, z3 | G2 x4 | x6 | %152
 x6 | x6 | x6 | x6 | x6 | x6 | x6 | x6 | x6 | x6 |[M:4/4] z C2 C D E D C |[M:3/4] B,2 z2 G2 | %164
 ^F2 G2 G2 | B, C D E G2 | A, D ^F G G F | G2 G2 x2 | z C D E D C | D2 G2 G2 | ^F2 F2 F2 | %171
 D2 D2 D2 | D2 D2 D2 | =B,2 B,2 B,2 | =B,2 B,2 B,2 | x4 G,2 | x2 G,2 G,2 | =B,2 B,2 B,2 | =B,2 x4 | %179
 ^F2 F2 F2 | ^F2 F2 F2 | G2 G2 G2 | G2 G2 G2 | G2 G2 G2 | F2 F2 F2 | E2 E2 E2 | D2 D2 D2 | %187
 C2 C2 C2 | D2 G2 G2 | G2 ^F2 E2 | D G, A, B, D E | F D B, A, B, D | F E D C B, A, | C x5 | %194
 G, G, G, G, G, G, | B, A, G, A, B, G, | A, G, A, B, C D | G,2 |] %198

